X: 27261
T: Miss Stewart Of Garth
R: reel
M: 4/4
K: Ddorian
|:D/D/D DE FG AG|[CE]c G[Gc] [CE][CE] [CE][CE]|D/D/D DE FG AG|1 Ad fe Ad d2:|2 Ad fe d2dc||
da fg af df|eg cg ec ge|de fg af df|ec ge {e}Ad2c|
da fg af df|eg cg ec gb|af ge fd ec|dA FE D/D/D DE|

